X:5057
T:The Poorly Hand
M:12/8
R:Slide
L:1/8
Q:220
C:Aidan Crossey
K:G
|: BcB D2D BcB G3|ABA D2D FED c3|
BcB D2D BcB G3|ABA FED G3 G3:||
|:Bcd g3 fga g3|e2c A2G FGA D3|
B2G c2A d2B efg|f2d cAF G3 G3:||
